images/squiggle.svg

<svg fill="none" height="52" viewBox="0 0 464 52" width="464" xmlns="http://www.w3.org/2000/svg"><path d="m1.88892 26c6.30348-10.9099 9.45518-16.3648 12.84808-19.20304 9.2838-7.766275 22.7978-7.766275 32.0816 0 3.3929 2.83824 6.5446 8.29314 12.8481 19.20304 6.3035 10.9099 9.4552 16.3648 12.8481 19.203 9.2838 7.7663 22.7978 7.7663 32.0812 0 3.393-2.8382 6.545-8.2931 12.848-19.203 6.304-10.9099 9.456-16.3648 12.849-19.20304 9.283-7.766275 22.797-7.766274 32.081.00001 3.393 2.83823 6.545 8.29313 12.848 19.20303 6.304 10.9099 9.455 16.3648 12.848 19.203 9.284 7.7663 22.798 7.7663 32.082 0 3.393-2.8382 6.545-8.2931 12.848-19.203 6.304-10.9099 9.455-16.36481 12.848-19.20304 9.284-7.766277 22.798-7.766279 32.082-.00001 3.393 2.83824 6.544 8.29315 12.848 19.20305 6.303 10.9099 9.455 16.3648 12.848 19.203 9.284 7.7663 22.798 7.7663 32.082 0 3.392-2.8382 6.544-8.2931 12.848-19.203 6.303-10.9099 9.455-16.36479 12.848-19.20302 9.283-7.766289 22.797-7.766292 32.081-.00001 3.393 2.83823 6.545 8.29313 12.848 19.20303l2.023 3.5c4.538 7.8545 6.807 11.7817 9.03 14.0451 9.798 9.9769 25.874 9.9769 35.673 0 2.223-2.2634 4.492-6.1907 9.03-14.0451" stroke="#fff" stroke-dasharray="4 8" stroke-linecap="round" stroke-linejoin="round" stroke-width="2"/></svg>

<svg width="464" height="52" viewBox="0 0 464 52" fill="none" xmlns="http://www.w3.org/2000/svg">
<path d="M1.88892 26V26C8.1924 15.0901 11.3441 9.6352 14.737 6.79696C24.0208 -0.969315 37.5348 -0.969315 46.8186 6.79696C50.2115 9.6352 53.3632 15.0901 59.6667 26V26C65.9702 36.9099 69.1219 42.3648 72.5148 45.203C81.7986 52.9693 95.3126 52.9693 104.596 45.203C107.989 42.3648 111.141 36.9099 117.444 26V26C123.748 15.0901 126.9 9.6352 130.293 6.79696C139.576 -0.969315 153.09 -0.969314 162.374 6.79697C165.767 9.6352 168.919 15.0901 175.222 26V26C181.526 36.9099 184.677 42.3648 188.07 45.203C197.354 52.9693 210.868 52.9693 220.152 45.203C223.545 42.3648 226.697 36.9099 233 26V26C239.304 15.0901 242.455 9.63519 245.848 6.79696C255.132 -0.969317 268.646 -0.969319 277.93 6.79695C281.323 9.63519 284.474 15.0901 290.778 26V26C297.081 36.9099 300.233 42.3648 303.626 45.203C312.91 52.9693 326.424 52.9693 335.708 45.203C339.1 42.3648 342.252 36.9099 348.556 26V26C354.859 15.0901 358.011 9.63521 361.404 6.79698C370.687 -0.969309 384.201 -0.969312 393.485 6.79697C396.878 9.6352 400.03 15.0901 406.333 26L408.356 29.5C412.894 37.3545 415.163 41.2817 417.386 43.5451C427.184 53.522 443.26 53.522 453.059 43.5451C455.282 41.2817 457.551 37.3544 462.089 29.5V29.5" stroke="white" stroke-width="2" stroke-linecap="round" stroke-linejoin="round" stroke-dasharray="4 8"/>
</svg>
